X:1378
T:Berehom, Berehom, Berezhynoyu
S:A. Humenyuk
Q:100
M:6/8
L:1/8
K:AMIX
A A F A A F | G G G F E z |: \
D D D D G E | F D D D A, z :| 
A A A F d z | A F G F E z |: \
D D D D (GE) | _F D D D A, z :|


